assets/svgs/imageviewer.svg

<?xml version="1.0" encoding="UTF-8" standalone="no"?>
<svg
   xmlns:dc="http://purl.org/dc/elements/1.1/"
   xmlns:cc="http://creativecommons.org/ns#"
   xmlns:rdf="http://www.w3.org/1999/02/22-rdf-syntax-ns#"
   xmlns:svg="http://www.w3.org/2000/svg"
   xmlns="http://www.w3.org/2000/svg"
   xmlns:sodipodi="http://sodipodi.sourceforge.net/DTD/sodipodi-0.dtd"
   xmlns:inkscape="http://www.inkscape.org/namespaces/inkscape"
   version="1.1"
   id="svg6"
   sodipodi:docname="imageviewer.svg"
   width="264"
   height="30"
   inkscape:version="0.92.5 (2060ec1f9f, 2020-04-08)">
  <metadata
     id="metadata12">
    <rdf:RDF>
      <cc:Work
         rdf:about="">
        <dc:format>image/svg+xml</dc:format>
        <dc:type
           rdf:resource="http://purl.org/dc/dcmitype/StillImage" />
      </cc:Work>
    </rdf:RDF>
  </metadata>
  <defs
     id="defs10" />
  <sodipodi:namedview
     pagecolor="#ffffff"
     bordercolor="#666666"
     borderopacity="1"
     objecttolerance="10"
     gridtolerance="10"
     guidetolerance="10"
     inkscape:pageopacity="0"
     inkscape:pageshadow="2"
     inkscape:window-width="532"
     inkscape:window-height="460"
     id="namedview8"
     showgrid="false"
     inkscape:zoom="2.36"
     inkscape:cx="50"
     inkscape:cy="-20"
     inkscape:window-x="72"
     inkscape:window-y="27"
     inkscape:window-maximized="0"
     inkscape:current-layer="svg6" />
  <path
     d="m 48.3,25.182 1.912,-5.544 c 1.911,0.516 3.664,0.773 5.257,0.773 1.593,0 2.879,-0.066 3.857,-0.2 l 0.273,-1.679 -2.833,-0.271 c -2.162,-0.201 -3.695,-0.682 -4.597,-1.444 -0.895,-0.761 -1.342,-1.835 -1.342,-3.224 0,-0.605 0.067,-1.276 0.204,-2.016 0.524,-2.866 1.471,-4.837 2.845,-5.912 1.38,-1.073 3.516,-1.611 6.406,-1.611 2.89,0 5.439,0.279 7.646,0.839 l -1.775,5.375 C 64.173,9.932 62.58,9.763 61.374,9.763 c -1.206,0 -2.23,0.058 -3.072,0.169 l -0.273,1.645 2.287,0.235 c 2.321,0.247 3.971,0.791 4.949,1.636 0.979,0.835 1.469,1.959 1.469,3.369 0,1.433 -0.319,2.913 -0.956,4.435 -0.319,0.784 -0.669,1.44 -1.047,1.97 -0.372,0.523 -0.85,0.967 -1.434,1.333 -0.577,0.372 -1.104,0.653 -1.582,0.839 -0.478,0.194 -1.081,0.335 -1.809,0.426 -1.069,0.157 -2.378,0.234 -3.925,0.234 -2.822,0 -5.382,-0.29 -7.681,-0.872 z m 34.921,-5.643 -0.547,5.643 c -1.456,0.582 -3.299,0.872 -5.53,0.872 -2.867,0 -4.923,-0.548 -6.167,-1.645 -1.237,-1.098 -1.854,-2.788 -1.854,-5.072 0,-0.963 0.159,-2.385 0.478,-4.266 0.683,-3.851 1.858,-6.65 3.527,-8.396 1.676,-1.748 4.324,-2.621 7.942,-2.621 0.842,0 1.806,0.086 2.89,0.257 1.078,0.165 1.866,0.37 2.367,0.616 l -1.912,5.139 C 83.073,9.752 81.818,9.595 80.649,9.595 c -1.175,0 -2.014,0.113 -2.514,0.337 -0.501,0.224 -0.808,0.672 -0.922,1.343 l -1.57,8.8 c 0.818,0.18 1.661,0.27 2.525,0.27 1.843,0 3.528,-0.27 5.053,-0.806 z m 17.818,-0.975 2.253,6.987 h -7.134 l -1.57,-6.247 h -1.4 l -1.092,6.247 H 85.61 L 89.365,4.558 h 10.24 c 3.892,0 5.838,1.713 5.838,5.139 0,1.411 -0.217,2.755 -0.649,4.031 -0.797,2.417 -2.048,4.031 -3.755,4.836 z M 96.158,9.932 H 94.86 l -0.75,4.2 h 1.501 c 0.774,0 1.358,-0.083 1.753,-0.248 0.402,-0.171 0.675,-0.653 0.819,-1.443 0.152,-0.798 0.228,-1.29 0.228,-1.468 0,-0.448 -0.175,-0.736 -0.523,-0.862 C 97.531,9.99 96.955,9.932 96.158,9.932 Z m 25.158,2.822 -0.888,4.87 h -6.485 l -0.445,2.553 h 7.954 l -0.956,5.374 h -14.439 l 3.755,-20.993 h 14.268 l -1.775,5.374 h -6.997 l -0.478,2.822 z m 18.091,0 -0.888,4.87 h -6.485 l -0.444,2.553 h 7.954 l -0.956,5.374 h -14.44 l 3.755,-20.993 h 14.269 l -1.775,5.374 h -6.998 l -0.477,2.822 z m 20.856,12.797 h -6.11 l -3.481,-7.456 c -0.092,-0.157 -0.137,-0.378 -0.137,-0.662 0,-0.276 0.023,-0.593 0.068,-0.95 h -0.273 l -1.604,9.068 h -6.486 l 3.755,-20.993 h 6.11 l 3.482,7.457 c 0.068,0.157 0.102,0.377 0.102,0.661 0,0.276 -0.022,0.592 -0.068,0.95 h 0.273 l 1.639,-9.068 h 6.485 z m 3.721,-0.369 1.912,-5.544 c 1.911,0.516 3.664,0.773 5.257,0.773 1.592,0 2.878,-0.066 3.857,-0.2 l 0.273,-1.679 -2.834,-0.271 c -2.161,-0.201 -3.694,-0.682 -4.596,-1.444 -0.896,-0.761 -1.343,-1.835 -1.343,-3.224 0,-0.605 0.068,-1.276 0.205,-2.016 0.523,-2.866 1.471,-4.837 2.845,-5.912 1.38,-1.073 3.515,-1.611 6.406,-1.611 2.89,0 5.438,0.279 7.646,0.839 l -1.775,5.375 c -1.98,-0.336 -3.573,-0.505 -4.779,-0.505 -1.206,0 -2.23,0.058 -3.073,0.169 l -0.272,1.645 2.286,0.235 c 2.322,0.247 3.972,0.791 4.95,1.636 0.979,0.835 1.468,1.959 1.468,3.369 0,1.433 -0.318,2.913 -0.956,4.435 -0.318,0.784 -0.668,1.44 -1.046,1.97 -0.373,0.523 -0.851,0.967 -1.434,1.333 -0.577,0.372 -1.104,0.653 -1.582,0.839 -0.478,0.194 -1.081,0.335 -1.809,0.426 -1.069,0.157 -2.378,0.234 -3.926,0.234 -2.821,0 -5.382,-0.29 -7.68,-0.872 z m 38.095,0.369 h -6.486 l 1.297,-7.423 h -4.881 l -1.297,7.423 h -6.486 l 3.755,-20.993 h 6.486 l -1.332,7.422 h 4.882 l 1.331,-7.422 h 6.486 z m 12.835,-13.974 -1.571,8.734 h 2.697 c 0.888,0 1.548,-0.105 1.98,-0.313 0.432,-0.217 0.717,-0.705 0.853,-1.466 l 1.57,-8.734 h -2.73 c -0.865,0 -1.513,0.104 -1.946,0.313 -0.433,0.217 -0.717,0.706 -0.853,1.466 z m 3.926,-7.523 c 2.889,0 4.949,0.557 6.178,1.668 1.229,1.106 1.843,2.811 1.843,5.117 0,2.306 -0.372,4.722 -1.115,7.244 -0.736,2.516 -1.909,4.471 -3.516,5.867 -1.601,1.404 -3.945,2.104 -7.032,2.104 -3.08,0 -5.234,-0.552 -6.463,-1.656 -1.229,-1.113 -1.843,-2.821 -1.843,-5.128 0,-1.097 0.159,-2.545 0.478,-4.345 0.319,-1.805 0.739,-3.363 1.263,-4.668 0.523,-1.314 1.229,-2.452 2.116,-3.415 1.707,-1.858 4.404,-2.788 8.091,-2.788 z m 27.171,0.504 -0.99,5.374 h -4.71 l -2.766,15.619 h -6.486 l 2.766,-15.619 h -4.677 l 0.99,-5.374 z m -1.639,20.624 1.912,-5.544 c 1.911,0.516 3.664,0.773 5.257,0.773 1.592,0 2.878,-0.066 3.857,-0.2 l 0.273,-1.679 -2.833,-0.271 c -2.162,-0.201 -3.695,-0.682 -4.597,-1.444 -0.896,-0.761 -1.343,-1.835 -1.343,-3.224 0,-0.605 0.068,-1.276 0.205,-2.016 0.523,-2.866 1.471,-4.837 2.845,-5.912 1.38,-1.073 3.515,-1.611 6.406,-1.611 2.89,0 5.438,0.279 7.646,0.839 l -1.775,5.375 c -1.98,-0.336 -3.573,-0.505 -4.779,-0.505 -1.206,0 -2.23,0.058 -3.072,0.169 l -0.273,1.645 2.287,0.235 c 2.321,0.247 3.971,0.791 4.949,1.636 0.979,0.835 1.468,1.959 1.468,3.369 0,1.433 -0.318,2.913 -0.955,4.435 -0.319,0.784 -0.669,1.44 -1.047,1.97 -0.373,0.523 -0.851,0.967 -1.434,1.333 -0.577,0.372 -1.104,0.653 -1.582,0.839 -0.478,0.194 -1.081,0.335 -1.809,0.426 -1.069,0.157 -2.378,0.234 -3.926,0.234 -2.821,0 -5.381,-0.29 -7.68,-0.872 z"
     style="white-space:pre;fill:#ffffff"
     id="path2"
     inkscape:connector-curvature="0" />
  <path
     d="M 35.727,0 H 2.749 C 1.23,0 0,1.221 0,2.728 V 27.272 C 0,28.778 1.23,30 2.749,30 h 32.978 c 1.518,0 2.748,-1.222 2.748,-2.728 V 2.728 C 38.475,1.221 37.245,0 35.727,0 Z M 8.245,5.454 c 2.115,0 3.437,2.273 2.38,4.091 -1.057,1.818 -3.703,1.818 -4.76,0 C 5.623,9.131 5.496,8.66 5.496,8.182 5.496,6.677 6.728,5.454 8.245,5.454 Z M 32.979,24.545 H 5.496 v -2.728 l 5.497,-5.453 2.748,2.727 10.993,-10.909 8.245,8.182 z"
     style="fill:#ffffff"
     id="path4"
     inkscape:connector-curvature="0" />
</svg>

<?xml version="1.0" encoding="utf-8"?>
<svg viewBox="0 0 264 30" xmlns="http://www.w3.org/2000/svg">
  <path d="M 48.3 25.182 L 50.212 19.638 C 52.123 20.154 53.876 20.411 55.469 20.411 C 57.062 20.411 58.348 20.345 59.326 20.211 L 59.599 18.532 L 56.766 18.261 C 54.604 18.06 53.071 17.579 52.169 16.817 C 51.274 16.056 50.827 14.982 50.827 13.593 C 50.827 12.988 50.894 12.317 51.031 11.577 C 51.555 8.711 52.502 6.74 53.876 5.665 C 55.256 4.592 57.392 4.054 60.282 4.054 C 63.172 4.054 65.721 4.333 67.928 4.893 L 66.153 10.268 C 64.173 9.932 62.58 9.763 61.374 9.763 C 60.168 9.763 59.144 9.821 58.302 9.932 L 58.029 11.577 L 60.316 11.812 C 62.637 12.059 64.287 12.603 65.265 13.448 C 66.244 14.283 66.734 15.407 66.734 16.817 C 66.734 18.25 66.415 19.73 65.778 21.252 C 65.459 22.036 65.109 22.692 64.731 23.222 C 64.359 23.745 63.881 24.189 63.297 24.555 C 62.72 24.927 62.193 25.208 61.715 25.394 C 61.237 25.588 60.634 25.729 59.906 25.82 C 58.837 25.977 57.528 26.054 55.981 26.054 C 53.159 26.054 50.599 25.764 48.3 25.182 Z M 83.221 19.539 L 82.674 25.182 C 81.218 25.764 79.375 26.054 77.144 26.054 C 74.277 26.054 72.221 25.506 70.977 24.409 C 69.74 23.311 69.123 21.621 69.123 19.337 C 69.123 18.374 69.282 16.952 69.601 15.071 C 70.284 11.22 71.459 8.421 73.128 6.675 C 74.804 4.927 77.452 4.054 81.07 4.054 C 81.912 4.054 82.876 4.14 83.96 4.311 C 85.038 4.476 85.826 4.681 86.327 4.927 L 84.415 10.066 C 83.073 9.752 81.818 9.595 80.649 9.595 C 79.474 9.595 78.635 9.708 78.135 9.932 C 77.634 10.156 77.327 10.604 77.213 11.275 L 75.643 20.075 C 76.461 20.255 77.304 20.345 78.168 20.345 C 80.011 20.345 81.696 20.075 83.221 19.539 Z M 101.039 18.564 L 103.292 25.551 L 96.158 25.551 L 94.588 19.304 L 93.188 19.304 L 92.096 25.551 L 85.61 25.551 L 89.365 4.558 L 99.605 4.558 C 103.497 4.558 105.443 6.271 105.443 9.697 C 105.443 11.108 105.226 12.452 104.794 13.728 C 103.997 16.145 102.746 17.759 101.039 18.564 Z M 96.158 9.932 L 94.86 9.932 L 94.11 14.132 L 95.611 14.132 C 96.385 14.132 96.969 14.049 97.364 13.884 C 97.766 13.713 98.039 13.231 98.183 12.441 C 98.335 11.643 98.411 11.151 98.411 10.973 C 98.411 10.525 98.236 10.237 97.888 10.111 C 97.531 9.99 96.955 9.932 96.158 9.932 Z M 121.316 12.754 L 120.428 17.624 L 113.943 17.624 L 113.498 20.177 L 121.452 20.177 L 120.496 25.551 L 106.057 25.551 L 109.812 4.558 L 124.08 4.558 L 122.305 9.932 L 115.308 9.932 L 114.83 12.754 L 121.316 12.754 Z M 139.407 12.754 L 138.519 17.624 L 132.034 17.624 L 131.59 20.177 L 139.544 20.177 L 138.588 25.551 L 124.148 25.551 L 127.903 4.558 L 142.172 4.558 L 140.397 9.932 L 133.399 9.932 L 132.922 12.754 L 139.407 12.754 Z M 160.263 25.551 L 154.153 25.551 L 150.672 18.095 C 150.58 17.938 150.535 17.717 150.535 17.433 C 150.535 17.157 150.558 16.84 150.603 16.483 L 150.33 16.483 L 148.726 25.551 L 142.24 25.551 L 145.995 4.558 L 152.105 4.558 L 155.587 12.015 C 155.655 12.172 155.689 12.392 155.689 12.676 C 155.689 12.952 155.667 13.268 155.621 13.626 L 155.894 13.626 L 157.533 4.558 L 164.018 4.558 L 160.263 25.551 Z M 163.984 25.182 L 165.896 19.638 C 167.807 20.154 169.56 20.411 171.153 20.411 C 172.745 20.411 174.031 20.345 175.01 20.211 L 175.283 18.532 L 172.449 18.261 C 170.288 18.06 168.755 17.579 167.853 16.817 C 166.957 16.056 166.51 14.982 166.51 13.593 C 166.51 12.988 166.578 12.317 166.715 11.577 C 167.238 8.711 168.186 6.74 169.56 5.665 C 170.94 4.592 173.075 4.054 175.966 4.054 C 178.856 4.054 181.404 4.333 183.612 4.893 L 181.837 10.268 C 179.857 9.932 178.264 9.763 177.058 9.763 C 175.852 9.763 174.828 9.821 173.985 9.932 L 173.713 11.577 L 175.999 11.812 C 178.321 12.059 179.971 12.603 180.949 13.448 C 181.928 14.283 182.417 15.407 182.417 16.817 C 182.417 18.25 182.099 19.73 181.461 21.252 C 181.143 22.036 180.793 22.692 180.415 23.222 C 180.042 23.745 179.564 24.189 178.981 24.555 C 178.404 24.927 177.877 25.208 177.399 25.394 C 176.921 25.588 176.318 25.729 175.59 25.82 C 174.521 25.977 173.212 26.054 171.664 26.054 C 168.843 26.054 166.282 25.764 163.984 25.182 Z M 202.079 25.551 L 195.593 25.551 L 196.89 18.128 L 192.009 18.128 L 190.712 25.551 L 184.226 25.551 L 187.981 4.558 L 194.467 4.558 L 193.135 11.98 L 198.017 11.98 L 199.348 4.558 L 205.834 4.558 L 202.079 25.551 Z M 214.914 11.577 L 213.343 20.311 L 216.04 20.311 C 216.928 20.311 217.588 20.206 218.02 19.998 C 218.452 19.781 218.737 19.293 218.873 18.532 L 220.443 9.798 L 217.713 9.798 C 216.848 9.798 216.2 9.902 215.767 10.111 C 215.334 10.328 215.05 10.817 214.914 11.577 Z M 218.84 4.054 C 221.729 4.054 223.789 4.611 225.018 5.722 C 226.247 6.828 226.861 8.533 226.861 10.839 C 226.861 13.145 226.489 15.561 225.746 18.083 C 225.01 20.599 223.837 22.554 222.23 23.95 C 220.629 25.354 218.285 26.054 215.198 26.054 C 212.118 26.054 209.964 25.502 208.735 24.398 C 207.506 23.285 206.892 21.577 206.892 19.27 C 206.892 18.173 207.051 16.725 207.37 14.925 C 207.689 13.12 208.109 11.562 208.633 10.257 C 209.156 8.943 209.862 7.805 210.749 6.842 C 212.456 4.984 215.153 4.054 218.84 4.054 Z M 246.011 4.558 L 245.021 9.932 L 240.311 9.932 L 237.545 25.551 L 231.059 25.551 L 233.825 9.932 L 229.148 9.932 L 230.138 4.558 L 246.011 4.558 Z M 244.372 25.182 L 246.284 19.638 C 248.195 20.154 249.948 20.411 251.541 20.411 C 253.133 20.411 254.419 20.345 255.398 20.211 L 255.671 18.532 L 252.838 18.261 C 250.676 18.06 249.143 17.579 248.241 16.817 C 247.345 16.056 246.898 14.982 246.898 13.593 C 246.898 12.988 246.966 12.317 247.103 11.577 C 247.626 8.711 248.574 6.74 249.948 5.665 C 251.328 4.592 253.463 4.054 256.354 4.054 C 259.244 4.054 261.792 4.333 264 4.893 L 262.225 10.268 C 260.245 9.932 258.652 9.763 257.446 9.763 C 256.24 9.763 255.216 9.821 254.374 9.932 L 254.101 11.577 L 256.388 11.812 C 258.709 12.059 260.359 12.603 261.337 13.448 C 262.316 14.283 262.805 15.407 262.805 16.817 C 262.805 18.25 262.487 19.73 261.85 21.252 C 261.531 22.036 261.181 22.692 260.803 23.222 C 260.43 23.745 259.952 24.189 259.369 24.555 C 258.792 24.927 258.265 25.208 257.787 25.394 C 257.309 25.588 256.706 25.729 255.978 25.82 C 254.909 25.977 253.6 26.054 252.052 26.054 C 249.231 26.054 246.671 25.764 244.372 25.182 Z" style="white-space: pre; fill: rgb(255, 255, 255);"/>
  <path d="M 35.727 0 L 2.749 0 C 1.23 0 0 1.221 0 2.728 L 0 27.272 C 0 28.778 1.23 30 2.749 30 L 35.727 30 C 37.245 30 38.475 28.778 38.475 27.272 L 38.475 2.728 C 38.475 1.221 37.245 0 35.727 0 Z M 8.245 5.454 C 10.36 5.454 11.682 7.727 10.625 9.545 C 9.568 11.363 6.922 11.363 5.865 9.545 C 5.623 9.131 5.496 8.66 5.496 8.182 C 5.496 6.677 6.728 5.454 8.245 5.454 Z M 32.979 24.545 L 5.496 24.545 L 5.496 21.817 L 10.993 16.364 L 13.741 19.091 L 24.734 8.182 L 32.979 16.364 L 32.979 24.545 Z" style="fill: rgb(255, 255, 255);"/>
</svg>
